icons/single-select-24.svg

<svg xmlns="http://www.w3.org/2000/svg" width="24" height="24" viewBox="0 0 24 24"><path d="M7.854 10.854l3.792 3.792a.5.5 0 00.708 0l3.793-3.792a.5.5 0 00-.354-.854H8.207a.5.5 0 00-.353.854z"/><path d="M2 3.75C2 2.784 2.784 2 3.75 2h16.5c.966 0 1.75.784 1.75 1.75v16.5A1.75 1.75 0 0120.25 22H3.75A1.75 1.75 0 012 20.25zm1.75-.25a.25.25 0 00-.25.25v16.5c0 .138.112.25.25.25h16.5a.25.25 0 00.25-.25V3.75a.25.25 0 00-.25-.25z"/></svg>

<svg xmlns="http://www.w3.org/2000/svg" width="24" height="24" viewBox="0 0 24 24">
  <defs/>
  <path d="M7.854,10.854 L11.646,14.646 A0.5 0.5 0 0 0 12.354,14.646 L16.147,10.854 A0.5 0.5 0 0 0 15.793,10 L8.207,10 A0.5 0.5 0 0 0 7.854,10.854 Z"/>
  <path d="M2,3.75 C2,2.784 2.784,2 3.75,2 L20.25,2 C21.216,2 22,2.784 22,3.75 L22,20.25 C22,21.216 21.216,22 20.25,22 L3.75,22 C2.784,22 2,21.216 2,20.25 Z M3.75,3.5 C3.612,3.5 3.5,3.612 3.5,3.75 L3.5,20.25 C3.5,20.388 3.612,20.5 3.75,20.5 L20.25,20.5 C20.388,20.5 20.5,20.388 20.5,20.25 L20.5,3.75 C20.5,3.612 20.388,3.5 20.25,3.5 Z"/>
</svg>
